X:1
T:Schweitzerpsalm
T:Schweitzerpsalm
T:Leonhard Widmer
T:Alberik Zwyssig
C:Alberik Zwyssig
%%score [ 1 2 3 4 ]
L:1/8
Q:1/4=62
M:3/4
K:Eb
V:1 treble-8 nm="T1"
V:2 treble-8 nm="T2"
V:3 bass nm="B1"
V:4 bass nm="B2"
V:1
"^Langsam"!p! B3/2 B/ B2 e2 |!>(! e3/2 d/ d2!>)! z2 | B3/2 B/ B2 f2 |!>(! f3/2 e/ e2!>)! z2 | %4
w: 1.Trittst im Mor- gen-|rot da- her,|seh' ich dich im|Strah- len- meer,|
!f! g3 g f f | f3 e d2 |!>(! c4 =A2!>)! | B4 z2 |!p! d3/2 d/ d2 d2 | (e3 d) (cB) |!>(! B6!>)! | %11
w: dich, du Hoch- er-|ha- be- ner!|Herr- li-|cher!|Wenn der Al- pen-|firn _ sich _|rö-|
 B4 z2 |!p!!<(! d3/2 d/ d2 d2!<)! |!mf! (e3 f) g2 |!>(! (f4 e2) | d4!>)! z2 | %16
w: tet,|be- tet, frei- e|Schwei- * zer,|be- *|tet!|
!p! B3/2!<(! B/ B2!<)! e2 | !>!_d3/2 c/ c2 z2 |"^cresc." c3/2 c/ c2 f2 | !>!e3/2 d/ d2 z2 | %20
w: Eu- re from- me|See- le ahnt,|eu- re from- me|See- le ahnt|
!f! g3 g a f | e4 d2 | e2 z2 z2 |!f!!<(! g3 g !>!a f!<)! | (e6- |!>(! e2 dc) d2!>)! |!p! e4 z2 |] %27
w: Gott im heh- ren|Va- ter-|land,|Gott im heh- ren|Va-|* * * ter-|land.|
V:2
!p! B3/2 B/ B2 B2 |!>(! B3/2 B/ B2!>)! z2 | A3/2 A/ A2 dB |!>(! B3/2 B/ B2!>)! z2 |!f! e3 e d d | %5
w: 1.Trittst im Mor- gen-|rot da- her,|seh' ich dich im _|Strah- len- meer,|dich, du Hoch- er-|
 =A3 c B2 |!>(! G4 F2!>)! | F4 z2 |!p! B3/2 B/ B2 B2 | B4 (AG) |!>(! (F2 A2 G2)!>)! | F4 z2 | %12
w: ha- be- ner!|Herr- li-|cher!|Wenn der Al- pen-|firn sich _|rö- * *|tet,|
!p!!<(! B3/2 B/ B2 B2!<)! |!mf! (B3 d) e2 |!>(! B6 | B4!>)! z2 |!p! G3/2!<(! G/ G2!<)! B2 | %17
w: be- tet, frei- e|Schwei- * zer,|be-|tet!|Eu- re from- me|
 !>!B3/2 A/ A2 z2 |"^cresc." A3/2 A/ A2 c2 | !>!B3/2 B/ B2 z2 |!f! e3 e e c | B4 A2 | (G4 B2) | %23
w: See- le ahnt,|eu- re from- me|See- le ahnt|Gott im heh- ren|Va- ter-|land, _|
!f!!<(! e3 e !>!e c!<)! | (B6- |!>(! B4) B2!>)! |!p! B4 z2 |] %27
w: Gott im heh- ren|Va-|* ter-|land.|
V:3
!p! G,3/2 G,/ G,2 G,2 |!>(! A,3/2 A,/ A,2!>)! z2 | F,3/2 F,/ F,2 A,2 |!>(! A,3/2 G,/ G,2!>)! z2 | %4
w: 1.Trittst im Mor- gen-|rot da- her,|seh' ich dich im|Strah- len- meer,|
!f! B,3 B, B, B, | F,3 F, F,2 |!>(! E,4 (F,E,)!>)! | D,4 z2 |!p! F,3/2 F,/ F,2 A,2 | G,4 E,2 | %10
w: dich, du Hoch- er-|ha- be- ner!|Herr- li- *|cher!|Wenn der Al- pen-|firn sich|
!>(! (D,2 F,2 E,2)!>)! | D,4 z2 |!p!!<(! F,3/2 F,/ B,2 B,2!<)! |!mf! B,4 B,2 |!>(! (B,2 A,2 G,2) | %15
w: rö- * *|tet,|be- tet, frei- e|Schwei- zer,|be- * *|
 F,4!>)! z2 |!p! E,3/2!<(! E,/ E,2!<)! G, E, | !>!E,3/2 E,/ E,2 z2 |"^cresc." E,3/2 E,/ E,2 A,2 | %19
w: tet!|Eu- re from- me See-|le ahnt, *|eu- re from- me|
 !>!G,3/2 F,/ F,2 z2 |!f! B,3 =B, C A, | G,4 F,2 | (E,4 F,2) |!f!!<(! B,3 =B, !>!C A,!<)! | %24
w: See- le ahnt|Gott im heh- ren|Va- ter-|land, _|Gott im heh- ren|
 (G,4 _G,2 |!>(! F,4) A,2!>)! |!p! G,4 z2 |] %27
w: Va- *|* ter-|land.|
V:4
!p! E,3/2 E,/ E,2 E,2 |!>(! F,3/2 F,/ F,2!>)! z2 | D,3/2 D,/ D,2 B,,2 |!>(! E,3/2 E,/ E,2!>)! z2 | %4
w: 1.Trittst im Mor- gen-|rot da- her,|seh' ich dich im|Strah- len- meer,|
!f! E,3 E, B,, B,, | C,3 F, B,,2 |!>(! (E,2 C,2) F,,2!>)! | B,,4 z2 |!p! B,,3/2 B,,/ B,,2 B,,2 | %9
w: dich, du Hoch- er-|ha- be- ner!|Herr- * li-|cher!|Wenn der Al- pen-|
 B,,4 B,,2 |!>(! B,,6!>)! | B,,4 z2 |!p!!<(! B,,3/2 B,,/ B,,2 A,2!<)! |!mf! G,3 F, E,2 | %14
w: firn sich|rö-|tet,|be- tet, frei- e|Schwei- * zer,|
!>(! (D,4 E,2) | B,,4!>)! z2 |!p! E,3/2!<(! E,/ E,2!<)! E,2 | !>!A,,3/2 A,,/ A,,2 z2 | %18
w: be- *|tet!|Eu- re from- me|See- le ahnt,|
"^cresc." A,,3/2 A,,/ A,,2 F,,2 | !>!B,,3/2 B,,/ B,,2 z2 |!f! E,3 E, A,, A,, | B,,4 =B,,2 | %22
w: eu- re from- me|See- le ahnt|Gott im heh- ren|Va- ter-|
 (C,4 D,2) |!f!!<(! E,3 E, !>!A,, A,,!<)! | B,,6- |!>(! B,,4 B,,2!>)! |!p! E,4 z2 |] %27
w: land, _|Gott im heh- ren|Va-|* ter-|land.|

